X:6
T:Polska efter Jonk Jonas
R:polska O
O:Härjedalen, Överhogdal
Z:id:hn-op-6
M:3/4
L:1/8
K:Dm
a2 g2 f2 | e>f d>e ^c>e | d>e (3fed (3efg | a2 e^c A2- |
A2 g2 f2 | e>f d>e ^c>e | d>e (3fed (3^c=B^c | d2 d4 :|
|: D2 E2 FG | (3ABA GA B2- | B>A FA (3BAG | GF DF (3ED^C |
D2 E2 FG | (3ABA GA B2- | B>A FA (3BAG | GF D4 :|
This file contains 4 hallings (#1 - #4).
You can find more abc tune files at http://www.norbeck.nu/abc/
Last updated 4 July 2019.
(c) Copyright 2002-2019 Henrik Norbeck. This file:
- May be distributed with restrictions below.
- May not be used for commercial purposes (such as printing a tune book to sell).
- This file (or parts of it) may not be made available on a web page for
download without permission from me.
- This copyright notice must be kept, except when e-mailing individual tunes.
- May be printed on paper for personal use.
- Questions? E-mail: henrik@norbeck.nu
R:halling
Z:id:hn-%R-%X
M:2/4
L:1/8

